X:1
T:D minor Timothy Swan, 1801
T:Charles Wesley, 1746 Funeral Hymns, No. 6.      55. 55. 65. 65.
T:Upton
T:Transcribed from Swan's New England Harmony, 1801.
%%score [ 1 2 3 4 ]
L:1/8
Q:1/4=170
M:6/4
K:F
V:1 treble nm="Treble" snm="Tr."
V:2 treble nm="Counter" snm="C."
V:3 treble-8 nm="Tenor" snm="T."
V:4 bass nm="Bass" snm="B."
V:1
"^1.  All  honor and praise    Are      Je-su-s’s    due;      Sup–por–ted  by grace,  He  fought his way through;                   Tri–um–phant–ly" A6 A2 d2 A2 | %1
 d6 c6 | c2 c2 c2 A6 | d6 A2 G2 A2 | d6 c6 | c2 c2 c2 A6- | A6 z4 z2 | A6 c2 A2 A2 | %8
"^1.  glorious,  Through  Jesus’s    zeal, _________     And    more than victorious   O’er    sin, ________   death,  and  hell." c2 c2 A2 d2 d2 f2 | %9
 c6- c4 c2 | c2 f2 c2 d2 d2 f2 | (c6 A2) A2 A2 | A6- A6 |] %13
V:2
"^2.  Then   let  us  re–cord    The  conquering  name,   Our  captain and Lord  With shoutings proclaim:                          Who trust in his" A6 F2 F2 F2 | %1
 D6 A6 | G2 G2 G2 F6 | A6 A2 G2 F2 | G6 G6 | A2 A2 G2 F6- | F6 z4 z2 | A6 c2 c2 c2 | %8
"^2.  passion  And  follow    our    head, _________    To          certain   sal –va –tion  We    all __________   shall   be     led." A2 A2 A2 F2 A2 F2 | %9
 A6- A4 A2 | F2 A2 F2 A2 A2 A2 | (F6 A2) F2 F2 | A6- A6 |] %13
V:3
"^3.   O       Jesus,  lead   on     Thy    mi–li–tant care,      And  give us the crown  Of  righteousness there;                        Where dazzled with" d6 d2 A2 d2 | %1
 A6 A6 | G2 F2 G2 A6 | A6 A2 G2 A2 | B6 c6 | c2 A2 G2 F6- | F6 z4 z2 | c6 c2 c2 c2 | %8
"^3.  glo –ry  The  se  –  ra – phim  gaze, _________    Or     prostrate  adore   thee    In       si         –       lence  of     praise." f2 f2 f2 d3 e f2 | %9
 e6- e4 dc | A2 c2 c2 d2 A2 A2 | (A6 c2) A2 A2 | d6- d6 |] %13
V:4
"^4. Come, Lord, and display  Thy sign in the sky,      And   bear  us  a – way     To  mansions  on  high;                             The  kingdom  be" D,6 D,2 D,2 D,2 | %1
 D,6 A,,6 | C,2 C,2 C,2 F,6 | D,6 D,2 E,2 F,2 | G,6 C,6 | A,,2 A,,2 C,2 F,6- | F,6 z4 z2 | %7
 F,6 C,2 F,2 A,2 | %8
"^____________________________________________________________-\nEdited by B. C. Johnston, 2016\n   1. Measure 12, \nCounter\n: A-G-F-F changed to F-A-F-F.\n   2. The original words are the first stanza of Wesley's hymn;\n        stanzas two through five given here.""^4.  gi–ven,  The purchase  di  – vine, __________  And   crown  us  in    heaven    E   –   ter        –      nal  – ly      thine." F,2 F,2 F,2 D,2 D,2 D,2 | %9
 A,6- A,4 A,2 | F,2 F,2 F,2 D,2 D,2 D,2 | (F,6 C,2) D,2 F,2 | D,6- D,6 |] %13

